X:1
T:Tirsi morir volea
T:Ascanio Trombetti
T:Prima parte
T:Tirsi morir volea
C:Ascanio Trombetti
%%score [ 1 2 3 4 ]
L:1/8
Q:1/4=124
M:2/2
K:C
V:1 alto1 nm="Canto" snm="C"
V:2 alto nm="Alto" snm="A"
V:3 tenor nm="Tenore" snm="T"
V:4 bass nm="Basso" snm="B"
V:1
 x8 | x8 |[M:4/2][K:treble] z16 | z8 z4 G4 | c2 c2 A4 B4 c4- | c2 BA B4 c8 | z4 G4 A2 B2 A4 | %7
w: |||Tir-|si mo- rir vo- le-|* * * * a,|Gl'oc- chi mi- ran-|
 B2 c4 G2 G2 ^F2 G4 | E8 z4 G4 | G3 G G2 A2 G4 G4 | A4 B4 c6 BA | B2 c4 B2 c4 G4 | A4 G2 c2 c4 c4 | %13
w: do di co- lei ch'a- do-|ra; Quan-|d'el- la, che di lui non|me- no ar- de- * *|* * * a, Gli|dis- se, Gli dis- se:|
 z4 B8 A4- | A4 G4 ^F8 | ^F4 z4 z4 d4 | d4 B4 B8- | B4 B4 z8 | z4 E4 F6 G2 | A4 z2 A2 F4 E4 | z16 | %21
w: "Oi- me,|_ ben mi-|o, "Oi-|me, ben mi-|* o,|Deh, non mo-|rir an- co- ra,||
 z8 z4 z2 A2 | G4 ^F2 G4 B2 cB c2- | c2 B2 A4 G2 D2 E4 | D4 z2 E2 G4 E2 c2- | c2 d2 cd c4 B2 A4 | %26
w: Che|te- co bra- mo di mo- rir|_ an- ch'i- o, an- ch'i-|o, Che te- co bra-|* mo di mo- rir an- ch'i-|
 !fermata!B16 ||[Q:1/4=108]"^Seconda parte" G4 c8 B4 | A2 B2 G8 ^F4 | z8 z2 G3 G E2 | %30
w: o."|Fre- nò Tir-|si il de- si- o,|Ch'heb- be di|
 F2 G2 C2 c2 A2 G2 F4 | E4 z2 c2 A2 G2 A4 | G2 E4 E2 ^F2 G4 F2 | G8 z2 C2 F3 F | %34
w: pur sua vi- ta al- lor fi- ni-|re; E sen- tia mor-|te, E sen- tia mor- *|te il non po-|
 E2 E2 D4 E4 z2 G2 | ^F4 F2 F4 G2 A4 | A8 B4 B4 | c8 B8 | z8 z4 z2 A2- | AA B2 GE A4 G2 A2 A2 | %40
w: ter mo- ri- re. E|men- tre il guar- do pur|fi- so te-|ne- a|Ne'|_ be- gl'oc- chi di- vi- * ni Il|
 B3 B B2 A2 B4 A4 | z2 A3 G F2 A3 G/F/ G4 | A2 c3 B A2 G4 F4 | z2 G2 G2 F2 E4 E4 | E8 z8 | %45
w: net- ta- re a- mo- ro- so|in- di be- ve- * * *|a, in- di be- ve- a,|La bel- la Nin- fa|sua,|
 z2 E2 F2 D2 E4 E2 A2 | B2 c3 A c2 B4 c4 | z2 A2 G2 A3 F A2 G4 | C4 c8 A4 | z8 z4 ^G4 | %50
w: che già vi- ci- ni Sen-|tia i mes- si d'A- mo- re,|Sen- tia i mes- si d'A- mo-|re, Dis- se,|con|
 ^G4 A4 ^F6 F2 | ^F4 E4 F6 F2 | ^F4 G2 G2 A4 c2 BA | ^G2 G2 A8 G4 | z4 z2 E2 C4 B,4 | z8 z2 A4 G2 | %56
w: oc- chi lan- gui-|di e tre- man- ti:|"Mo- ri, cor mio, "Mo- ri, cor|mio, ch'io mo- ro,|ch'io mo- ro."|Cui ri-|
 F4 F2 E2 D4 C4 | z8 z2 G2 A3 G | F2 D2 G8 C2 G2 | A3 G F2 D2 G8 | !fermata!G16 ||[Q:1/4=96] z16 | %62
w: spo- se il Pa- sto- re:|"Ed io, mia|vi- ta, mo- ro, "Ed|io, mia vi- ta, mo-|ro."||
 c4 c2 A2 B4 c4 | z4 z2 G2 F3 F E2 E2 | D3 EFGAFGE G4 FE | ^F4 G4 z8 | z4 z2 A2 B3 B c2 c2 | %67
w: Co- si mo- ri- ro|i for- tu- na- ti a-|man- * * * * * * * * * *|* ti,|i for- tu- na- ti a-|
 d4 G4 z4 G4 | A4 A2 A4 G2 ^F4- | F4 ^F4 z4 D4 | E4 E2 E4 D2 ^C4- | C4 ^C4 z2 D2 E2 ^F2 | %72
w: man- ti, Di|mor- te si so- a-|* ve, Di|mor- te si so- a-|* ve e si gra-|
 G4 ^F2 A2 ^G2 A2 B4 | A6 A2 G2 A3 B c2 | d2 B2 d6 A2 c4- | c2 BA B4 c4 z2 A2 | %76
w: di- ta, e si gra- di-|ta, Che per an- co mo-|rir tor- nar in vi-|* * * * ta, Che|
 B2 c3 B e2 d2 B2 d2 c2 | B4 A2 A2 c8 | B4 z4 z8 | z2 G2 d4 A4 A4- | A4 G4 z4 z2 A2 | %81
w: per an- co mo- rir tor- nar in|vi- ta, in vi-|ta,|tor- nar in vi-|* ta, Che|
 B2 c3 B e2 d2 B2 d2 c2 | B4 A2 A2 c8 | B2 G2 B2 G2 c3 B A4 | !fermata!G16 |] %85
w: per an- co mo- rir tor- nar in|vi- ta, in vi-|ta, tor- nar in vi- * *|ta.|
V:2
 x8 | x8 |[M:4/2][K:treble] G6 G2 E4 F4- | F4 E4 D8 | C4 C4 D4 E4 | F8 E8 | E6 E2 ^F2 G4 F2 | %7
w: ||Tir- si mo- rir|_ vo- le-|a, mo- rir vo-|le- a,|Gl'oc- chi mi- ran- *|
 G8 z2 C4 B,2 | C2 A,2 G,4 C4 E4 | D3 D D2 D2 D2 D2 E4 | C4 G6 FE F4 | G12 E4 | F4 E4 z8 | %13
w: do di co-|lei ch'a- do- ra; Quan-|d'el- la, che di lui non me-|no ar- de- * * *|a, Gli|dis- se:|
 z4 G8 ^F4- | F4 E4 ^D8 | ^D4 z4 G8 | ^F4 E4 ^D8 | ^D4 E4 F6 G2 | A4 z4 z2 A,2 D4- | %19
w: "Oi- me,|_ ben mi-|o, "Oi-|me, ben mi-|o, Deh, non mo-|rir an- co-|
 D4 ^C2 C2 D4 C4 | z4 z2 E2 G4 E2 C2- | C2 D2 CD C4 B,2 A,4 | B,2 B,2 D2 B,4 E4 C2 | %23
w: * ra, an- co- ra,|Che te- co bra-|* mo di mo- rir an- ch'i-|o, Che te- co bra- mo|
 FE G2 EF E2 E2 D4 C2 | D2 A,2 C4 D2 E4 G2 | FG A4 G2 ^F2 G4 F2 | G16 || z4 G4 G4 D4 | %28
w: di mo- rir, di mo- rir an- ch'i- *|o, Che te- co bra- mo|di mo- rir an- ch'i- * *|o."|Fre- nò Tir-|
 D2 D2 E4 A,4 z2 D2- | DD E2 D2 C2 D4 E2 C2- | C2 G,2 A,3 G,A,B, C4 B,2 | C2 E4 E2 ^F2 G4 F2 | %32
w: si il de- si- o, Ch'heb-|* be di pur sua vi- ta al- lor|_ fi- ni- * * * * *|re; E sen- tia mor- *|
 G8 z8 | z2 D2 E3 E F4 C2 D2- | DC C4 B,2 C4 z2 E2 | D4 D2 D4 E2 F4 | F6 F2 D4 G4- | G2 FE F4 G8 | %38
w: te|il non po- ter mo- ri-|* * * * re. E|men- tre il guar- do pur|fi- so te- ne-|* * * * a|
 z16 | ^F3 F G2 EC D4 E2 F2 | G3 G G2 E2 G4 D4 | z4 F3 E D2 F4 E2 | F2 F2 F2 C2 C4 C4 | %43
w: |Ne' be- gl'oc- chi di- vi- ni Il|net- ta- re a- mo- ro- so|in- di be- ve- *|a, in- di be- ve- a,|
 z2 E4 D4 C2 B,2 B,2 | ^C6 C2 D2 D2 C4 | ^C2 C2 D2 D2 C4 C4 | z8 z2 D2 E4 | F2 FF E2 C2 z4 C4- | %48
w: La bel- la Nin- fa|sua, che già vi- ci-|ni, che già vi- ci- ni|Sen- tia i|mes- si d'A- mo- re, Dis-|
 C4 A,4 z8 | z4 F4 E8 | E4 E8 ^D4 | ^C4 B,4 C6 C2 | D4 C2 B,2 A,2 E4 GD | E2 E2 A,4 E4 z2 E2 | %54
w: * se,|con oc-|chi lan- gui-|di e tre- man- ti:|"Mo- ri, cor mio, "Mo- ri, cor|mio, ch'io mo- ro, ch'io|
 C4 B,2 B,4 A,4 !fermata!^G,2 | z4 E4 D2 C2 A,B, C2- | C2 B,2 C4 z4 z2 E2 | F3 E D2 E2 D4 E2 E2 | %58
w: mo- ro, ch'io mo- ro."|Cui ri- spo- se il Pa- sto-|* * re: "Ed|io, mia vi- ta, mo- ro, "Ed|
 F3 E D2 E2 D4 E4 | z2 E2 F3 E D2 C2 B,4 | C16 || C4 C2 F2 G4 C4 | z2 G2 G2 F2 D4 E4 | %63
w: io, mia vi- ta, mo- ro,|"Ed io, mia vi- ta, mo-|ro."|Co- si mo- ri- ro,|Co- si mo- ri- ro|
 z2 E2 D3 D C4 B,2 C2- | C2 B,2 z2 D2 C3 C B,2 B,2 | A,4 D2 D2 E3 E ^F2 F2 | G4 D2 D2 D3 D E2 E2 | %67
w: i for- tu- na- ti a- man-|* ti, i for- tu- na- ti a-|man- ti, i for- tu- na- ti a-|man- ti, i for- tu- na- ti a-|
 G4 E4 z4 D4 | F4 F2 F4 D2 D4- | D4 D4 z4 A,4 | C4 C2 C4 A,2 A,4- | A,4 A,4 z2 A,2 A,2 A,2 | %72
w: man- ti, Di|mor- te si so- a-|* ve, Di|mor- te si so- a-|* ve e si gra-|
 E4 A,2 F2 E2 D2 D4 | D8 z2 D2 C2 C2- | CB, E2 D2 G2 F4 E4 | F4 D2 F2 G2 A3 G E2 | %76
w: di- ta, e si gra- di-|ta, Che per an-|* co mo- rir tor- nar in|vi- ta, Che per an- co mo-|
 G4 z2 E2 G2 G2 ^F2 G2 | z2 D2 F2 F2 E4 ^F4 | G4 z4 z2 D2 C2 C2- | CB, E2 D2 G2 F4 E4 | %80
w: rir tor- nar in vi- ta,|Che per an- co mo-|rir, Che per an-|* co mo- rir tor- nar in|
 F4 D2 D2 G2 A3 G E2 | G4 z2 E2 G2 G2 ^F2 G2 | z2 D2 F2 F2 E4 ^F4 | G2 D2 G2 E2 G2 G2 F4 | E16 |] %85
w: vi- ta, Che per an- co mo-|rir tor- nar in vi- ta,|tor- nar in vi- *|ta, tor- nar, tor- nar in vi-|ta.|
V:3
 x8 | x8 |[M:4/2][K:treble-8] z4 G4 c2 c2 A4 | B4 c8 B4 | z4 A4 G4 G4 | d8 G4 G4- | G2 c2 B4 d8 | %7
w: ||Tir- si mo- rir|vo- le- a,|mo- rir vo-|le- a, Gl'oc-|* chi mi- ran-|
 d2 e4 d2 e2 c2 d4 | c8 z4 c4 | B3 B B2 A2 B4 B2 c2- | c2 A2 e8 d2 c2 | d2 e2 d4 c4 c4 | %12
w: do di co- lei ch'a- do-|ra; Quan-|d'el- la, che di lui non me-|* no ar- de- * *|* * * a, Gli|
 c4 c2 G2 A4 G4 | z8 d8 | d4 B4 B8 | B4 z4 B8 | A4 G4 ^F8 | ^F4 G4 A6 B2 | c4 z2 c2 A6 G2 | %19
w: dis- se, Gli dis- se:|"Oi-|me, ben mi-|o, "Oi-|me, ben mi-|o, Deh, non mo-|rir, Deh, non mo-|
 F4 z2 E2 D4 A4 | z2 A2 c4 G2 G4 G2 | AG A4 G2 ^F2 G4 F2 | G4 z2 E2 G4 E2 A2- | A2 G2 cd c4 B2 A4 | %24
w: rir an- co- ra,|Che te- co bra- mo|di mo- rir an- ch'i- * *|o, Che te- co bra-|* mo di mo- rir an- ch'i-|
 D2 ^F2 G4 G2 G4 G2 | Ac A4 c2 d8 | d16 || z4 e4 d8 | z2 G2 B2 ^c2 d4 A4 | z2 B3 B G2 A2 B2 c2 G2 | %30
w: o, Che te- co bra- mo|di mo- rir an- ch'i-|o."|Fre- nò|Tir- si il de- si- o,|Ch'heb- be di pur sua vi- ta al-|
 c8 c4 d4 | G8 z8 | z4 C4 c2 B2 c4 | B4 z2 c2 A3 A A2 A2 | G4 G4 z4 c4 | A4 A2 A4 B2 c4 | %36
w: lor fi- ni-|re;|E sen- tia mor-|te il non po- ter mo-|ri- re. E|men- tre il guar- do pur|
 c8 B4 d4 | c8 d4 z2 d2- | dd e2 cA d4 c2 d4 | d3 d e2 cA B4 A4 | z4 z2 ^c2 d3 d d2 A2 | %41
w: fi- so te-|ne- a Ne'|_ be- gl'oc- chi di- vi- * ni,|Ne' be- gl'oc- chi di- vi- ni|Il net- ta- re a- mo-|
 A4 A4 z4 z2 c2- | cB A2 A3 G/F/ G4 A4 | z2 c4 A2 ^G2 A4 G2 | A8 z8 | z2 A2 d2 _B2 A4 A2 e2 | %46
w: ro- so in-|* di be- ve- * * * a,|La bel- la Nin- fa|sua,|che già vi- ci- ni Sen-|
 e4 c2 cc d2 G2 z2 G2 | A4 c2 cA d2 c2 z4 | A6 B2 c8 | A4 z2 d2 c4 B2 A2 | B4 c4 B6 B2 | %51
w: tia i mes- si d'A- mo- re, Sen-|tia i mes- si d'A- mo- re,|Dis- * *|se, con oc- * *|* chi lan- gui-|
 ^A4 B4 A6 A2 | z8 c4 c2 d2 | B4 z2 d2 c4 B2 B2- | B2 A4 ^G2 z8 | z2 c4 B2 A4 c2 G2 | %56
w: di e tre- man- ti:|"Mo- ri, cor|mio, ch'io mo- ro, ch'io|_ mo- ro."|Cui ri- spo- se il Pa-|
 d4 G4 z4 z2 c2 | d3 c B2 c2 B4 c2 c2 | d3 c B2 c2 B4 c4 | z2 c2 A2 F2 G2 E2 D4 | E16 || %61
w: sto- re: "Ed|io, mia vi- ta, mo- ro, "Ed|io, mia vi- ta, mo- ro,|"Ed io, mia vi- ta, mo-|ro."|
 A4 A2 d2 c4 A4 | z2 e2 e2 c2 B4 G4 | z2 c2 _B3 B A2 A2 G4- | G4 A4 z8 | z2 A2 B3 B c2 c2 d4 | %66
w: Co- si mo- ri- ro,|Co- si mo- ri- ro|i for- tu- na- ti a- man-|* ti,|i for- tu- na- ti a- man-|
 G2 c2 A3 A G6 A2 | B4 c4 z4 B4 | c4 c2 c4 _B2 A4- | A4 A4 z4 ^F4 | G4 G2 G4 F2 E4- | %71
w: ti, i for- tu- na- ti a-|man- ti, Di|mor- te si so- a-|* ve, Di|mor- te si so- a-|
 E4 E4 z4 z2 d2 | c2 B2 d3 c B2 A2 G4 | D4 z2 D2 E2 F3 E A2 | G6 B2 d4 A4 | d8 c8 | %76
w: * ve e|si gra- di- * * * *|ta, Che per an- co mo-|rir tor- nar in|vi- ta,|
 z2 e2 d2 c3 B e2 d2 e2 | d4 d4 c4 A4 | z4 A4 G2 A3 B c2 | d2 B4 d4 A2 c4- | c2 BA B4 c8 | %81
w: Che per an- co mo- rir tor-|nar in vi- ta,|Che per an- co mo-|rir tor- nar in vi-|* * * * ta,|
 z2 e2 d2 c3 B e2 d2 e2 | d4 d4 c4 A4 | z2 B2 d2 c3 d e2 c4 | c16 |] %85
w: Che per an- co mo- rir tor-|nar in vi- ta,|tor- nar in _ _ vi-|ta.|
V:4
 x8 | x8 |[M:4/2] z16 | z8 G,6 G,2 | E,4 F,8 E,4 | D,8 C,4 C,4- | C,2 C,2 E,4 D,8 | %7
w: |||Tir- si|mo- rir vo-|le- a, Gl'oc-|* chi mi- ran-|
 G,,2 C,4 B,,2 C,2 A,,2 G,,4 | C,8 z4 C,4 | G,3 G, G,2 ^F,2 G,4 E,4 | F,4 G,4 A,8 | G,8 z4 C,4 | %12
w: do di co- lei ch'a- do-|ra; Quan-|d'el- la, che di lui non|me- no ar- de-|a, Gli|
 F,4 C,2 E,2 F,4 C,4 | z4 G,,8 D,4- | D,4 E,4 B,,8 | B,,4 z4 G,,8 | D,4 E,4 B,,8 | %17
w: dis- se, Gli dis- se:|"Oi- me,|_ ben mi-|o, "Oi-|me, ben mi-|
 B,,4 E,4 D,6 G,2 | F,4 z2 C,2 D,8 | A,,8 z8 | z2 D,2 C,4 B,,2 C,4 E,2 | F,E, F,4 E,2 D,4 D,4 | %22
w: o, Deh, non mo-|rir an- co-|ra,|Che te- co bra- mo|di mo- rir an- ch'i- o,|
 z16 | z16 | z2 D,2 C,4 B,,2 C,4 E,2 | F,E, F,4 E,2 D,8 | G,,16 || z4 C,4 G,4 G,4 | %28
w: ||Che te- co bra- mo|di mo- rir an- ch'i-|o."|Fre- nò Tir-|
 ^F,2 G,2 E,4 D,8 | z2 G,3 G, E,2 F,2 G,2 C,3 B,, | A,,2 E,2 F,6 E,2 D,4 | C,8 z8 | %32
w: si il de- si- o,|Ch'heb- be di pur sua vi- *|* ta al- lor fi- ni-|re;|
 z4 z2 C2 A,2 G,2 A,4 | G,4 z2 C,2 F,3 F, F,2 D,2 | E,3 F, G,4 C,4 z2 C,2 | D,4 D,2 D,4 G,2 F,4 | %36
w: E sen- tia mor-|te il non po- ter mo-|ri- * * re. E|men- tre il guar- do pur|
 F,8 G,4 G,4 | A,8 G,8 | G,3 G, A,2 F,D, E,4 D,4 | z16 | z4 z2 A,2 G,3 G, G,2 F,2 | D,4 D,4 z8 | %42
w: fi- so te-|ne- a|Ne' be- gl'oc- chi di- vi- ni||Il net- ta- re a- mo-|ro- so|
 F,3 E, D,2 F,4 E,2 F,4 | z2 C,2 C,2 D,2 E,6 E,2 | A,,4 z2 A,2 _B,2 G,2 A,4 | A,4 z4 z4 z2 A,2 | %46
w: in- di be- ve- * a,|La bel- la Nin- fa|sua, che già vi- ci-|ni Sen-|
 ^G,2 A,3 F, A,2 =G,4 C,4 | z2 D,2 E,2 F,3 D, F,2 E,4 | F,8 F,8- | F,4 D,4 z4 E,4 | %50
w: tia i mes- si d'A- mo- re,|Sen- tia i mes- si d'A- mo-|re, Dis-|* se, con|
 E,4 A,,4 B,,6 B,,2 | ^F,4 G,4 F,6 F,2 | z8 z2 A,4 G,F, | E,4 z2 F,2 E,8- | E,4 E,4 z8 | %55
w: oc- chi lan- gui-|di e tre- man- ti:|"Mo- ri, cor|mio, ch'io mo-|* ro."|
 z2 A,4 G,2 F,4 F,2 E,2 | D,4 C,4 z2 G,2 A,3 G, | F,2 D,2 G,8 C,4 | z16 | %59
w: Cui ri- spo- se il Pa-|sto- re: "Ed io, mia|vi- ta, mo- ro,||
 z2 C,2 D,3 C, B,,2 C,2 G,,4 | C,16 || F,4 F,2 D,2 E,4 F,4 | z2 C,2 C,2 F,2 G,4 C,4 | z16 | %64
w: "Ed io, mia vi- ta, mo-|ro."|Co- si mo- ri- ro,|Co- si mo- ri- ro||
 z2 G,2 F,3 F, E,2 E,2 D,4- | D,4 G,,4 z4 z2 D,2 | E,3 E, ^F,2 F,2 G,4 C,4 | z8 z4 G,4 | %68
w: i for- tu- na- ti a- man-|* ti, i|for- tu- na- ti a- man- ti,|Di|
 F,4 F,2 F,4 G,2 D,4- | D,4 D,4 z4 D,4 | C,4 C,2 C,4 D,2 A,,4- | A,,4 A,,4 z2 D,2 ^C,2 D,2 | %72
w: mor- te si so- a-|* ve, Di|mor- te si so- a-|* ve e si gra-|
 E,4 D,2 D,2 E,2 ^F,2 G,4- | G,4 ^F,4 z8 | z16 | z4 z2 D,2 E,2 F,3 E, A,2 | G,12 z2 E,2 | %77
w: di- ta, e si gra- di-|* ta,||Che per an- co mo-|rir tor-|
 G,4 D,4 A,8 | G,4 z2 D,2 E,2 F,3 E, A,2 | G,4 G,,4 D,4 A,,4 | D,4 D,2 D,2 E,2 F,3 E, A,2 | %81
w: nar in vi-|ta, Che per an- co mo-|rir tor- nar in|vi- ta, Che per an- co mo-|
 G,12 z2 E,2 | G,4 D,4 A,8 | G,6 C,2 E,2 C,2 F,4 | C,16 |] %85
w: rir tor-|nar in vi-|ta, tor- nar in vi-|ta.|

